X: 1
T: Another Jig Will Do
C: Trad
R: Slip Jig
M: 9/8
L: 1/8
K: D
Z: ABC transcription by Verge Roller
r: 16
|: "D" ABA A2 G F2 G | "D" ABA AGF "C" G3 | "D" ABA A2 G F2 G | "D" A2 d "A" d2 c "D" d3 :|
"D" A2 g  f2 d e2 c | "Am" A2 B =c2 d =c3  | "D" A2 g f2 d e2 c | "D" A2 d "A" d2 c "D" d3 |
"D" A2 g f2 d e2 c | "Am" A2 B =c2 d =c3 | "D" d=cB A2 G F2 G | "D" A2 d "A" d2 c "D" d3 |]
